X: 2147
T: Aughacashel, The
R: reel
M: 4/4
K: Gmajor
DEGA BGGG|AGBG AGEG|D2 GA B/c/d ed|gedB AEGE|
DEGA BG G/G/G|AGBG AGEA|B/c/d ed Bdeg|dBAB GGGE|
DEGA BG G/G/G|AGBG AGEG|D2 GA B/c/d ed|gedB AEGE
DEGA BGG,G|AGBG AGEA|B/c/d ed Bdge|dBAB GABd||
gB B/B/B GABd|egdB GGGA|ABGB AEEE|cABG AAde|
ggga bgaf|gedB ABGE|DEGA B/c/d ge|dBAB GGBd|
gB B/B/B GABd|egdB GGGA|ABGB AEEE|c/B/A BG AAde|
g/g/g ga bgaf|gedB ABGE|DEGA B/c/d ge|dBAB GGGE||

